tools/download-figma-icons/icons/outlined-medium/globus.svg

<svg width="24" height="24" viewBox="0 0 24 24" fill="none" xmlns="http://www.w3.org/2000/svg">
<path fill-rule="evenodd" clip-rule="evenodd" d="M11.2495 3.97566L9.82524 1.82396C8.17152 2.32645 6.75855 3.38393 5.80457 4.78115L8.69276 6.89535C8.88551 7.0356 8.9995 7.2606 8.9995 7.49984V11.5985L10.9157 12.8757C11.1242 13.0152 11.2495 13.2492 11.2495 13.4997V16.4622C11.497 16.4869 11.7467 16.4997 11.9994 16.4997C13.0532 16.4997 14.0559 16.2792 14.9656 15.8854L13.5774 13.0835C13.5264 12.9792 13.4994 12.866 13.4994 12.7497V10.4998C13.4994 10.0858 13.8354 9.7498 14.2494 9.7498H17.9993C18.1846 9.7498 18.3631 9.81805 18.5003 9.94179L19.3073 10.6655C19.4295 10.1285 19.4993 9.5728 19.4993 8.99981C19.4993 8.68257 19.473 8.37057 19.4348 8.06308L16.3344 6.03812L12.1224 6.74011C11.9049 6.77536 11.6829 6.71461 11.515 6.57211C11.3462 6.43036 11.2495 6.22037 11.2495 5.99987V3.97566ZM16.9096 4.62216L18.8003 5.85738C17.6086 3.28943 15.0122 1.49997 11.9995 1.49997C11.8159 1.49997 11.6343 1.51369 11.4535 1.52735L11.4287 1.52922L12.625 3.33668C12.7067 3.45893 12.7495 3.60293 12.7495 3.74992V5.1149L16.3764 4.51041C16.5646 4.48191 16.7529 4.51941 16.9096 4.62216ZM14.9994 12.5742L16.2781 15.1519C17.3461 14.4057 18.2086 13.3887 18.7726 12.2008L17.7128 11.2498H14.9994V12.5742ZM5.08084 6.11016C4.70735 6.99964 4.49961 7.97612 4.49961 8.99985C4.49961 12.3515 6.71056 15.1955 9.7495 16.154V13.9018L7.83404 12.6238C7.62479 12.485 7.49955 12.2503 7.49955 11.9998V7.88087L5.08084 6.11016ZM4.19961 4.52503C4.20205 4.52335 4.20449 4.52166 4.20636 4.51941C5.43409 2.39245 7.50255 0.814483 9.9595 0.242995C9.96678 0.240887 9.97396 0.238681 9.9811 0.236489C10.0019 0.230105 10.0223 0.223845 10.0435 0.220495C10.6742 0.0802484 11.3275 0 11.9995 0C16.4281 0 20.1105 3.21668 20.8538 7.4346C20.8619 7.46463 20.8653 7.49414 20.8689 7.52443C20.8696 7.53045 20.8703 7.5365 20.871 7.5426C20.9483 8.01809 20.9993 8.50258 20.9993 8.99982C20.9993 10.1308 20.781 11.2093 20.3993 12.2075C20.3895 12.2405 20.3768 12.2712 20.3633 12.3035C19.0426 15.6349 15.7959 17.9996 11.9995 17.9996C7.03681 17.9996 2.99964 13.9632 2.99964 8.99982C2.99964 7.3896 3.43088 5.87913 4.17486 4.57041C4.17906 4.5643 4.18151 4.55742 4.18399 4.55046C4.18639 4.54373 4.18881 4.53692 4.19286 4.53066C4.19474 4.52841 4.19718 4.52672 4.19961 4.52503ZM11.9998 18.75C14.6622 18.75 17.2024 17.736 18.9694 15.9698C19.2626 15.6765 19.7366 15.6765 20.0298 15.9698C20.3231 16.263 20.3231 16.737 20.0298 17.0302C18.1519 18.9082 15.5307 20.0392 12.7497 20.2139V22.4999H15.7497C16.1644 22.4999 16.4997 22.8351 16.4997 23.2499C16.4997 23.6646 16.1644 23.9999 15.7497 23.9999H8.24983C7.83509 23.9999 7.49985 23.6646 7.49985 23.2499C7.49985 22.8351 7.83509 22.4999 8.24983 22.4999H11.2498V20.2117C5.39614 19.8232 0.749985 14.9505 0.749985 9.00015C0.749985 5.94322 1.92296 3.01678 3.96967 0.970068C4.26291 0.676824 4.7369 0.676824 5.03015 0.970068C5.32339 1.26331 5.32339 1.7373 5.03015 2.03055C3.26393 3.79826 2.24995 6.33771 2.24995 9.00015C2.24995 14.376 6.62386 18.75 11.9998 18.75Z" fill="black"/>
</svg>

<svg width="24" height="24" viewBox="0 0 24 24" fill="none" xmlns="http://www.w3.org/2000/svg"><path fill-rule="evenodd" clip-rule="evenodd" d="M11.25 3.976 9.824 1.824a7.526 7.526 0 0 0-4.02 2.957l2.888 2.114c.193.14.306.366.306.605v4.098l1.917 1.278c.208.14.333.373.333.624v2.962a7.449 7.449 0 0 0 3.716-.577l-1.388-2.801a.757.757 0 0 1-.078-.334V10.5a.75.75 0 0 1 .75-.75H18c.186 0 .364.068.501.192l.807.723A7.489 7.489 0 0 0 19.5 9c0-.317-.026-.63-.064-.937l-3.1-2.025-4.213.702A.752.752 0 0 1 11.25 6V3.976Zm5.66.646 1.89 1.235C17.61 3.29 15.012 1.5 12 1.5a7.23 7.23 0 0 0-.546.027l-.025.002 1.196 1.808a.743.743 0 0 1 .124.413v1.365l3.627-.605a.759.759 0 0 1 .534.112ZM15 12.574l1.278 2.578a7.554 7.554 0 0 0 2.495-2.951l-1.06-.951h-2.714v1.324ZM5.08 6.11A7.448 7.448 0 0 0 4.5 9c0 3.351 2.21 6.195 5.25 7.154v-2.252l-1.916-1.278A.749.749 0 0 1 7.5 12V7.88L5.08 6.11ZM4.2 4.525a.032.032 0 0 0 .006-.006A9.015 9.015 0 0 1 9.96.243l.022-.007A8.996 8.996 0 0 1 12 0c4.43 0 8.111 3.217 8.855 7.435.008.03.011.06.015.09l.002.018c.077.475.128.96.128 1.457a8.956 8.956 0 0 1-.636 3.303C19.043 15.636 15.796 18 12 18c-4.962 0-9-4.037-9-9a8.944 8.944 0 0 1 1.185-4.45l.009-.02.007-.005ZM12 18.75c2.662 0 5.202-1.014 6.97-2.78a.749.749 0 1 1 1.06 1.06c-1.878 1.878-4.5 3.01-7.28 3.184V22.5h3a.75.75 0 1 1 0 1.5h-7.5a.75.75 0 1 1 0-1.5h3v-2.288C5.396 19.823.75 14.95.75 9c0-3.057 1.173-5.983 3.22-8.03a.75.75 0 1 1 1.06 1.06C3.264 3.799 2.25 6.339 2.25 9c0 5.376 4.374 9.75 9.75 9.75Z" fill="currentColor"/></svg>
